X: 4178
M: C|
L: 1/8
K: Em
|:\
gafg edBd |
dfed Bdef |\
[1 (3(gag) (3(fgf) edBd | (3(efg) (3(fe^d) e2(ef) :|\
[2 (3(gab) (3(agf) (3(gfe) (3(fed) | (3(efg) (3(fe^d) e2e2 |]


